src/images/icons/google.svg

<svg viewBox="0 0 512 512" xmlns="http://www.w3.org/2000/svg">
<path d="M445.622 260.391C445.636 247.365 444.518 234.363 442.282 221.531H259.832V295.121H364.332C362.168 306.915 357.626 318.146 350.983 328.129C344.34 338.112 335.735 346.639 325.692 353.191V401.001H388.062C424.582 367.711 445.622 318.531 445.622 260.391Z" fill="#4285F4"/>
<path d="M259.83 447.092C312 447.092 356 430.162 388.06 401.002L325.69 353.202C308.34 364.822 285.98 371.462 259.83 371.462C209.37 371.462 166.54 337.862 151.22 292.582H87V341.812C119.81 406.352 186.7 447.092 259.83 447.092Z" fill="#34A853"/>
<path d="M151.211 292.592C143.121 268.883 143.121 243.16 151.211 219.452V170.222H86.9909C73.4532 196.794 66.3958 226.194 66.3958 256.017C66.3958 285.839 73.4532 315.239 86.9909 341.812L151.211 292.592Z" fill="#FBBC04"/>
<path d="M259.822 140.572C287.349 140.103 313.974 150.384 334.042 169.232L389.262 114.702C354.081 82.1485 307.749 64.3373 259.822 64.942C186.692 64.942 119.822 105.672 86.9619 170.212L151.212 219.442C166.532 174.172 209.362 140.572 259.822 140.572Z" fill="#EA4335"/>
</svg>

<svg data-fixedcolors="true" xmlns="http://www.w3.org/2000/svg" viewBox="0 0 512 512">
  <title>
    google
  </title>
  <g>
    <path d="M445.63,260.39a225,225,0,0,0-3.34-38.86H259.84v73.59h104.5a88.38,88.38,0,0,1-38.64,58.07V401h62.37C424.59,367.71,445.63,318.53,445.63,260.39Z" fill="#4285f4"/>
    <path d="M259.83,447.09C312,447.09,356,430.16,388.06,401L325.69,353.2c-17.35,11.62-39.71,18.26-65.86,18.26-50.46,0-93.29-33.6-108.61-78.88H87v49.23C119.81,406.35,186.7,447.09,259.83,447.09Z" fill="#34a853"/>
    <path d="M151.22,292.59a113.24,113.24,0,0,1,0-73.14V170.22H87a189,189,0,0,0,0,171.59Z" fill="#fbbc04"/>
    <path d="M259.83,140.57a105.78,105.78,0,0,1,74.22,28.66l55.22-54.53A187.11,187.11,0,0,0,259.83,64.94c-73.13,0-140,40.73-172.86,105.27l64.25,49.23C166.54,174.17,209.37,140.57,259.83,140.57Z" fill="#ea4335"/>
  </g>
</svg>
